Font-Source/Egyptian2/svg-my/13891.svg

<?xml version="1.0" encoding="UTF-8" standalone="no"?>
<svg
   width="500"
   height="1000"
   id="svg2"
   sodipodi:version="0.32"
   inkscape:version="1.4.2 (f4327f4, 2025-05-13)"
   sodipodi:docname="13891.svg"
   inkscape:output_extension="org.inkscape.output.svg.inkscape"
   version="1.0"
   xmlns:inkscape="http://www.inkscape.org/namespaces/inkscape"
   xmlns:sodipodi="http://sodipodi.sourceforge.net/DTD/sodipodi-0.dtd"
   xmlns="http://www.w3.org/2000/svg"
   xmlns:svg="http://www.w3.org/2000/svg"
   xmlns:rdf="http://www.w3.org/1999/02/22-rdf-syntax-ns#"
   xmlns:cc="http://creativecommons.org/ns#"
   xmlns:dc="http://purl.org/dc/elements/1.1/">
  <metadata
     id="metadata9">
    <rdf:RDF>
      <cc:Work
         rdf:about="">
        <dc:format>image/svg+xml</dc:format>
        <dc:type
           rdf:resource="http://purl.org/dc/dcmitype/StillImage" />
      </cc:Work>
    </rdf:RDF>
  </metadata>
  <defs
     id="defs7" />
  <sodipodi:namedview
     inkscape:window-height="998"
     inkscape:window-width="1680"
     inkscape:pageshadow="2"
     inkscape:pageopacity="0.0"
     guidetolerance="10.0"
     gridtolerance="10.0"
     objecttolerance="10.0"
     borderopacity="1.0"
     bordercolor="#666666"
     pagecolor="#ffffff"
     id="base"
     height="18px"
     width="10.648681px"
     inkscape:zoom="0.53386562"
     inkscape:cx="278.15989"
     inkscape:cy="662.15165"
     inkscape:window-x="-8"
     inkscape:window-y="-8"
     inkscape:current-layer="svg2"
     inkscape:showpageshadow="2"
     inkscape:pagecheckerboard="0"
     inkscape:deskcolor="#d1d1d1"
     inkscape:window-maximized="1" />
  <path
     id="path4"
     style="fill:#000000;stroke:none;stroke-width:55.5115"
     d="m 242.57812,0 c 2.72945,6.141265 8.35917,15.524769 16.88868,28.148438 8.52951,12.623697 15.35494,29.851951 20.47265,51.6875 5.1177,21.835562 11.42957,36.337152 18.93555,43.501952 7.50596,7.1648 14.6705,12.1104 21.49414,14.83984 h -9.21289 c -4.09414,2.72946 -4.09414,5.46001 0,8.18946 H 315.25 l 1.80078,8.99609 c -12.7536,7.723 -20.86151,20.41757 -24.31836,38.08594 -4.09416,21.15321 -9.55137,36.5075 -16.375,46.06055 -0.68237,4.77653 1.70521,6.82294 7.16406,6.14062 2.04716,2.04704 2.21764,3.58195 0.51172,4.60547 -1.70592,1.02352 -0.85319,2.89947 2.5586,5.62891 -2.0471,4.77652 -1.02382,7.16601 3.07031,7.16601 -0.68237,4.09416 -2e-4,7.84796 2.04687,11.25977 2.04711,3.4118 6.48303,4.60556 13.30664,3.58203 6.8236,-1.02354 12.96493,-1.87818 18.42383,-2.56055 2.04707,10.23546 5.45981,18.42516 10.23633,24.56641 l -24.5664,-1.02344 c -25.24737,6.82362 -39.23541,19.78843 -41.96485,38.89453 -21.83558,27.29448 -40.51129,52.72902 -57.57031,80.02344 -37.90505,18.71196 -70.6487,42.35766 -95.03516,60.84375 -8.19943,-4.31551 -13.11029,-5.92969 -21.396482,-5.92969 V 259.97852 c 0,-26.61211 -8.871852,-40.59818 -26.613281,-41.9629 4.776556,-8.18834 13.648414,-18.42453 26.613281,-30.70703 6.141234,-3.41182 10.918272,-8.87097 14.330082,-16.37695 2.04709,-8.8707 -3.41209,-11.25824 -16.376957,-7.16406 -10.235421,8.18835 -23.200217,20.81012 -38.894531,37.86914 -12.282499,9.55305 -20.472249,19.10711 -24.566406,28.66016 -0.682369,2.72945 -3.410974,8.87074 -8.1875,18.42382 C 14.67074,258.27375 8.1883429,278.06205 0,308.08594 c 0.68236986,16.37669 4.7752765,18.08208 12.28125,5.11718 2.047077,-7.50594 5.461756,-18.08128 10.238281,-31.72851 4.776526,-13.64723 12.280205,-24.90666 22.515625,-33.77734 6.141267,-4.77653 11.259364,-8.18727 15.353516,-10.23438 8.870704,0 13.306642,7.50365 13.30664,22.51563 V 472.70703 H 59.365234 c -4.776525,3.41181 -2.728135,8.18881 6.142578,14.33008 -4.776527,2.72942 -5.801711,8.1886 -3.072265,16.37695 2.729418,8.18835 6.483211,12.6243 11.259765,13.30664 v 375.49414 h -0.103515 c 0,9.11344 -1.762773,16.44955 -7.294922,21.98243 -10.740348,7.8113 -18.077027,18.52569 -21.982422,32.19531 -2.278393,12.36761 -1.312129,29.29277 2.917969,50.77344 3.580191,2.60385 8.454883,3.40908 14.638672,2.43359 -2.929026,-11.71669 -4.376953,-21.94869 -4.376953,-30.73633 -1.625998,-17.90048 3.247437,-30.91598 14.638671,-39.05273 2.929277,-2.27839 6.677814,-3.4043 11.234376,-3.4043 5.207418,0 9.116854,0.80313 11.720703,2.43164 11.065779,8.46218 15.779589,21.79923 14.152339,40.02539 0,8.78739 -1.44667,18.85874 -4.37695,30.25 6.18379,1.30232 11.05848,0.65887 14.63867,-1.94336 4.2311,-21.48067 5.35699,-38.24497 3.4043,-50.28711 -3.58021,-13.99508 -10.59487,-24.87229 -21.00977,-32.68359 -6.509493,-5.53287 -8.753902,-12.35373 -8.753902,-21.98242 V 515.69531 c 8.188312,-2.72945 16.376112,-7.50453 24.564452,-14.32812 44.33989,-13.28841 65.92568,-20.40988 99.2832,-45.89258 31.38859,-29.34153 60.38985,-61.75159 87.00196,-97.23438 3.41181,8.18834 1.02233,17.74045 -7.16602,28.65821 2.72946,7.50597 6.99484,12.62406 12.79492,15.35351 5.80006,2.72944 8.3601,6.48325 7.67774,11.25977 -15.01192,112.58964 -21.83736,180.82631 -20.47266,204.70898 11.60014,66.8714 17.74143,104.91309 18.42383,114.125 0.68235,9.21186 -0.68195,35.82363 -4.09375,79.83594 -3.41181,44.01231 -6.48154,74.88753 -9.21094,92.62891 -2.04713,15.01198 -4.43657,25.58922 -7.16601,31.73047 -9.55309,15.69432 -29.51189,27.46343 -59.87696,35.31054 -30.3651,7.84716 -45.54687,14.84315 -45.54687,20.98438 v 6.14258 L 227.22461,1000 c 24.56499,-5.45904 45.71951,-5.79834 63.46094,-1.02148 19.1061,1.36478 34.28987,-0.002 45.54883,-4.09571 11.25896,-4.09437 26.09971,-2.38876 44.52343,5.11719 21.15318,-1.36476 26.61038,-12.96527 16.375,-34.80078 -1.36471,-15.01193 -1.02171,-26.44189 1.02539,-34.28906 2.04709,-7.84716 3.41139,-16.54658 4.09375,-26.09961 6.82357,-75.05969 8.87008,-132.37814 6.14063,-171.95508 -2.72942,-39.57699 -0.68298,-92.11829 6.14062,-157.625 8.1883,-29.34145 10.57781,-51.86033 7.16602,-67.55469 -10.91779,-28.65916 -17.05718,-51.51711 -18.42188,-68.57617 l 3.06836,-32.75391 10.23438,-18.42187 c 2.54197,19.1061 19.39684,62.14668 32.76758,89.78906 0.39401,37.82721 5.58798,69.42547 12.97461,106.72852 l 0.0996,1.02539 c -6.66083,15.69432 -10.7922,29.34127 -12.39258,40.9414 l -2.13672,14 c -14.11985,12.66213 0.48671,43.40092 16.36328,68.09766 -17.11212,0 -33.74881,-3.80075 -49.91016,-11.40625 -3.80265,10.45729 -3.3256,21.86392 1.42774,34.22266 14.2599,-5.70374 31.3699,-7.60684 51.33398,-5.70508 l -5.70312,71.30273 h 25.66992 l -7.13086,-69.875 c 17.11211,-0.95051 34.70096,0.47656 52.76367,4.2793 2.85188,-11.40802 2.37491,-22.81658 -1.42773,-34.22461 -17.11211,7.60528 -33.74881,11.40625 -49.91016,11.40625 22.68171,-34.47632 29.2168,-62.07356 11.22656,-73.01758 l -1.82422,-11.12695 -8.50586,-34.80078 c -2.38449,-52.54184 -3.74898,-86.98826 -6.66796,-117.38672 -8.69116,-36.86759 -23.53382,-70.60458 -30.35743,-104.72266 l 4.09375,-1.02344 v -46.05859 c 0,-68.9185 -8.86798,-118.04906 -26.60937,-147.39062 -4.29102,-6.81513 -10.09809,-12.30705 -17.37695,-16.50782 l 2.02343,-10.10351 h 4.09375 c 3.4118,-2.72945 3.4118,-5.46001 0,-8.18946 h -9.21289 c 6.8236,-2.72944 14.15869,-7.67504 22.00586,-14.83984 7.84714,-7.1648 14.15899,-21.66639 18.93555,-43.501952 4.77648,-21.835578 11.42946,-39.063803 19.95898,-51.6875 C 471.68188,15.524768 477.31158,6.141265 480.04102,0 c -6.82361,2.7294473 -16.20516,10.576147 -28.14649,23.541016 -10.40378,11.295492 -19.90322,32.691943 -28.49414,64.1875 0.22972,-2.20326 0.3457,-4.493583 0.3457,-6.869141 0,-24.000439 -14.89206,-61.412109 -62.43554,-61.412109 -48.97145,0 -61.41211,39.601352 -61.41211,61.412109 0,2.899245 0.16955,5.671845 0.51172,8.314453 C 291.18271,56.887088 281.28859,35.008359 270.72656,23.541016 258.78526,10.576147 249.40175,2.7294473 242.57812,0 Z m 118.73243,32.753906 c 34.71341,0 48.10742,25.993025 48.10742,47.082032 0,28.097592 -21.26789,47.083982 -48.10742,47.083982 -25.62928,0 -49.56622,-17.9064 -48.10743,-47.083982 0,-21.08415 13.38993,-47.082032 48.10743,-47.082032 z M 335.4668,161.7207 h 42.59375 c 14.80304,2.9509 25.93902,9.09029 33.40429,18.42188 17.74137,28.65915 26.60938,75.40221 26.60938,140.22656 v 35.82227 H 376.66406 V 246.67383 c 7.50599,-10.23543 11.25977,-19.10535 11.25977,-26.61133 0,-18.42376 -5.80027,-27.63672 -17.40039,-27.63672 -8.8707,0 -13.30664,3.7518 -13.30664,11.25781 -4.09416,0.68234 -8.18902,-2.55784 -12.28321,-9.72265 -4.09415,-7.16471 -16.71788,-9.72484 -37.87109,-7.67774 3.94483,-12.8207 13.41301,-21.0066 28.4043,-24.5625 z m 3.83593,40.94141 c 3.753,6.8236 12.11327,12.62386 25.07813,17.40039 0,-10.91774 2.04837,-16.37891 6.14258,-16.37891 4.09413,0 6.14062,5.46115 6.14062,16.37891 0,6.82361 -3.75378,15.35245 -11.25976,25.58789 V 298.875 h -16.37696 c -6.82361,-5.45887 -12.96492,-16.37722 -18.42382,-32.75391 -5.45889,-0.68235 -11.77074,-0.34131 -18.93555,1.02344 -7.16478,1.36469 -11.42822,0.34149 -12.79297,-3.07031 -1.36471,-3.41181 1.19334,-5.96986 7.67578,-7.67578 6.48242,-1.70591 3.58328,-3.92484 -8.69922,-6.6543 l -1.02539,2.04688 c 1e-5,4e-5 -0.33913,-1.36431 -1.02148,-4.09375 1.36475,-2.72942 1.53328,-4.94642 0.50976,-6.65235 -1.02354,-1.70597 -3.58158,-1.87842 -7.67578,-0.51367 L 298.875,214.94336 c 8.18834,-8.18834 22.85849,-8.87051 44.01172,-2.04688 v -3.07226 c -21.83559,-7.506 -35.82362,-8.87029 -41.96484,-4.09375 l 2.04687,-8.1875 c 18.71286,-3.11884 32.28392,-2.24465 36.33398,5.11914 z m -25.26757,9.05078 c -6.23121,0.20845 -10.37838,3.56351 -13.11328,8.34961 l -3.07032,1.02148 v 4.09375 h 4.09375 c 0.68235,0 2.04666,0.34304 4.09375,1.02539 2.04711,0.68236 4.77571,0.68235 8.1875,0 4.09419,0 9.55336,-2.04648 16.37696,-6.14062 h 12.2832 v -4.09375 h -12.2832 c -6.56773,-2.98531 -12.09035,-4.40511 -16.56836,-4.25586 z m 2.24023,3.23047 c 1.36498,1.6e-4 5.11704,1.02534 11.25781,3.07226 -5.45888,2.72946 -9.89479,4.43283 -13.30664,5.11524 -0.33438,0 -0.66626,-7.1e-4 -0.99609,-0.006 6.8792,-1.737 3.18821,-8.03829 3.04492,-8.18164 z m -6.14258,1.02539 c -1.37206,1.37258 -2.1697,6.83011 2.57617,7.14648 -3.50777,-0.0746 -6.7549,-0.40882 -9.74023,-1.00585 1.36475,-0.68243 2.38797,-1.70751 3.07031,-3.07227 0.68241,-1.36469 2.04664,-2.38602 4.09375,-3.06836 z m -7.16406,97.23437 h 62.43555 v 54.24805 h 44.01367 l -10.23828,26.61328 h -73.69336 c -9.5531,0 -13.98898,-3.07166 -13.30664,-9.21289 15.01194,-30.02389 11.94226,-53.90702 -9.21094,-71.64844 z m 24.56445,88.0254 h 69.59961 l -1.02148,3.07031 h -67.55469 z m 12.28321,14.33007 h 47.08203 c -1.36471,29.34155 2.04603,54.58897 10.23437,75.74219 8.1883,21.15323 9.38405,42.13527 3.58399,62.94727 -5.80007,20.812 -9.04225,44.52264 -9.72461,71.13476 -0.68234,26.61205 -1.70361,52.20256 -3.06836,76.76758 5.45889,49.13003 3.0694,116.34159 -7.16602,201.63672 h -57.31836 c 11.60013,-100.3071 13.3055,-172.8073 5.11719,-217.50195 -8.18832,-44.69466 -12.28125,-71.47894 -12.28125,-80.34961 1.36471,-42.98874 9.2114,-106.44647 23.54102,-190.37696 z m 147.88086,234.27344 -0.0527,0.38867 c 5.56334,1.01723 1.6925,18.7867 -14.83008,46.87891 -14.27608,-21.41924 -19.48701,-36.49367 -19.72851,-41.63672 1.37905,-0.74255 2.24645,-1.55681 2.60351,-2.44336 3.90957,5.5775 7.62062,3.48946 11.3086,0.51367 2.96175,2.387 5.36699,2.55704 7.21484,0.50977 1.84793,-2.04616 3.84546,-2.55879 5.99219,-1.53516 2.1467,1.02364 4.62277,0.17091 7.42773,-2.55859 z M 340.83984,917.09375 h 20.47071 c 3.4118,12.96488 2.21808,23.88317 -3.58203,32.75391 -5.80005,8.87069 -15.18358,14.66893 -28.14844,17.39843 -2.04709,-10.91778 1.70671,-27.63443 11.25976,-50.15234 z"
     sodipodi:nodetypes="csssccccccccsccsscccccccsccccccsccsccscccscccccccccsccccccscccccsccssccssccccccscsccccccccccccccccccccccccccsccccccssscscssscscssscscccscccsscsccscssccccssscccsccccccsccccsscccccccccccccccccccccscccccccccssscccscccccccccsccccsccc" />
</svg>

<?xml version="1.0" encoding="UTF-8" standalone="no"?>
<svg
   width="500"
   height="1000"
   id="svg2"
   sodipodi:version="0.32"
   inkscape:version="1.4.2 (f4327f4, 2025-05-13)"
   sodipodi:docname="13891.svg"
   inkscape:output_extension="org.inkscape.output.svg.inkscape"
   version="1.0"
   xmlns:inkscape="http://www.inkscape.org/namespaces/inkscape"
   xmlns:sodipodi="http://sodipodi.sourceforge.net/DTD/sodipodi-0.dtd"
   xmlns="http://www.w3.org/2000/svg"
   xmlns:svg="http://www.w3.org/2000/svg"
   xmlns:rdf="http://www.w3.org/1999/02/22-rdf-syntax-ns#"
   xmlns:cc="http://creativecommons.org/ns#"
   xmlns:dc="http://purl.org/dc/elements/1.1/">
  <metadata
     id="metadata9">
    <rdf:RDF>
      <cc:Work
         rdf:about="">
        <dc:format>image/svg+xml</dc:format>
        <dc:type
           rdf:resource="http://purl.org/dc/dcmitype/StillImage" />
      </cc:Work>
    </rdf:RDF>
  </metadata>
  <defs
     id="defs7" />
  <sodipodi:namedview
     inkscape:window-height="998"
     inkscape:window-width="1680"
     inkscape:pageshadow="2"
     inkscape:pageopacity="0.0"
     guidetolerance="10.0"
     gridtolerance="10.0"
     objecttolerance="10.0"
     borderopacity="1.0"
     bordercolor="#666666"
     pagecolor="#ffffff"
     id="base"
     height="18px"
     width="10.648681px"
     inkscape:zoom="1.5099999"
     inkscape:cx="307.61591"
     inkscape:cy="398.34439"
     inkscape:window-x="-8"
     inkscape:window-y="-8"
     inkscape:current-layer="svg2"
     inkscape:showpageshadow="2"
     inkscape:pagecheckerboard="0"
     inkscape:deskcolor="#d1d1d1"
     inkscape:window-maximized="1"
     showguides="true">
    <sodipodi:guide
       position="361.31016,967.24622"
       orientation="1,0"
       id="guide2"
       inkscape:locked="false" />
  </sodipodi:namedview>
  <path
     id="path4"
     style="fill:#000000;stroke:none;stroke-width:55.5115"
     d="M 242.57812 0 C 245.30757 6.141265 250.93729 15.524769 259.4668 28.148438 C 267.99631 40.772136 274.82174 58.00039 279.93945 79.835938 C 284.88191 104.96684 295.99777 127.68967 320.36914 138.17773 L 311.15625 138.17773 C 307.06211 140.90719 307.06211 143.63774 311.15625 146.36719 L 315.25 146.36719 L 317.05078 155.36328 C 304.29718 163.08628 296.18927 175.78085 292.73242 193.44922 C 288.63826 214.60243 283.18105 229.95672 276.35742 239.50977 C 275.67505 244.2863 278.06263 246.33271 283.52148 245.65039 C 285.56864 247.69743 285.73912 249.23234 284.0332 250.25586 C 282.32728 251.27938 283.18001 253.15533 286.5918 255.88477 C 284.5447 260.66129 285.56798 263.05078 289.66211 263.05078 C 288.97974 267.14494 289.66191 270.89874 291.70898 274.31055 C 293.75609 277.72235 298.19201 278.91611 305.01562 277.89258 C 311.83922 276.86904 317.98055 276.0144 323.43945 275.33203 C 325.48652 285.56749 328.89926 293.75719 333.67578 299.89844 L 309.10938 298.875 C 283.86201 305.69862 269.87397 318.66343 267.14453 337.76953 C 247.64105 373.07508 234.60431 399.59326 224.70703 429.97852 C 186.80198 448.69048 161.6638 470.26586 137.27734 488.75195 C 129.07791 484.43644 124.16706 482.82227 115.88086 482.82227 L 115.88086 259.97852 C 115.88086 233.36641 107.00901 219.38035 89.267578 218.01562 C 94.044134 209.82728 102.916 199.59109 115.88086 187.30859 C 122.0221 183.89677 126.79913 178.43762 130.21094 170.93164 C 131.61831 164.83303 129.47922 161.7986 123.79102 161.82812 C 121.20547 161.84152 117.88551 162.48815 113.83398 163.76758 C 103.59856 171.95593 90.633767 184.5777 74.939453 201.63672 C 62.656954 211.18977 54.467204 220.74382 50.373047 230.29688 C 49.690678 233.02633 46.962073 239.16762 42.185547 248.7207 C 37.409021 258.27375 30.926624 278.06205 22.738281 308.08594 C 23.420651 324.46263 27.513558 326.16802 35.019531 313.20312 C 46.535968 270.97625 57.699892 250.17663 83.126953 237.46289 C 91.997657 237.46289 96.433594 244.96654 96.433594 259.97852 L 96.433594 482.82227 L 82.103516 482.82227 C 77.326991 486.23408 79.375381 491.01107 88.246094 497.15234 C 83.469567 499.88176 82.444382 505.34095 85.173828 513.5293 C 87.903246 521.71765 91.65704 526.1536 96.433594 526.83594 L 96.330078 892.21484 C 96.327478 901.32828 95.226322 909.41325 89.035156 914.19727 C 61.94091 935.13348 63.482377 964.21794 69.970703 997.16602 C 73.550894 999.76987 78.425586 1000.5751 84.609375 999.59961 C 79.272544 976.36062 73.841232 946.69913 94.871094 929.81055 C 97.800371 927.53216 101.54891 926.40625 106.10547 926.40625 C 111.31289 926.40625 115.22232 927.20938 117.82617 928.83789 C 136.59189 943.18834 134.21609 973.39976 127.60156 999.11328 C 133.78535 1000.4156 138.66004 999.77215 142.24023 997.16992 C 148.43102 965.74017 151.52409 934.88647 124.63477 914.19922 C 117.86361 908.98984 115.88086 901.84549 115.88086 892.2168 L 115.88086 525.81055 C 124.06918 523.0811 132.25697 518.30601 140.44531 511.48242 C 184.7852 498.19401 216.80459 479.91629 250.16211 454.43359 C 275.58136 419.8904 291.74357 393.54403 303.99219 358.24023 C 307.404 366.42857 305.01452 375.98068 296.82617 386.89844 C 299.55563 394.40441 303.82101 399.5225 309.62109 402.25195 C 315.42115 404.98139 317.98119 408.7352 317.29883 413.51172 C 302.28691 526.10136 295.46147 594.33803 296.82617 618.2207 C 308.42631 685.0921 314.5676 723.13379 315.25 732.3457 C 316.64548 751.18492 307.54874 868.38769 301.94531 904.81055 C 299.89818 919.82253 297.50874 930.39977 294.7793 936.54102 C 285.22621 952.23534 265.26741 964.00445 234.90234 971.85156 C 204.53724 979.69872 189.35547 986.69471 189.35547 992.83594 L 189.35547 998.97852 L 227.22461 1000 C 251.7896 994.54096 272.94412 994.20166 290.68555 998.97852 C 309.79165 1000.3433 324.97542 998.97679 336.23438 994.88281 C 347.49334 990.78844 362.33409 992.49405 380.75781 1000 C 401.91099 998.63524 407.36819 987.03473 397.13281 965.19922 C 395.7681 950.18729 396.1111 938.75733 398.1582 930.91016 C 400.20529 923.063 401.56959 914.36358 402.25195 904.81055 C 409.07552 829.75086 411.12203 772.43241 408.39258 732.85547 C 405.66316 693.27848 407.7096 640.73718 414.5332 575.23047 C 422.7215 545.88902 425.11101 523.37014 421.69922 507.67578 C 410.78143 479.01662 404.64204 456.15867 403.27734 439.09961 L 406.3457 406.3457 L 416.58008 387.92383 C 419.12205 407.02993 435.97692 450.07051 449.34766 477.71289 C 449.74167 515.5401 454.93564 547.13836 462.32227 584.44141 L 462.42188 585.4668 C 454.03683 602.86502 450.7408 621.59685 447.87109 640.42578 C 433.78493 653.09895 448.38676 683.82075 464.25586 708.50586 C 447.14374 708.50586 430.50705 704.70511 414.3457 697.09961 C 410.54305 707.5569 411.0201 718.96353 415.77344 731.32227 C 430.03334 725.61853 447.14334 723.71543 467.10742 725.61719 L 461.4043 796.91992 L 487.07422 796.91992 L 479.94336 727.04492 C 497.05547 726.09441 514.64432 727.52148 532.70703 731.32422 C 535.55891 719.9162 535.08194 708.50764 531.2793 697.09961 C 514.16719 704.70489 497.53049 708.50586 481.36914 708.50586 C 504.01364 674.0861 510.56401 646.52355 492.68359 635.54297 C 490.25667 620.00345 485.99713 604.82966 482.26562 589.56055 C 479.88113 537.01871 478.51664 502.57229 475.59766 472.17383 C 466.9065 435.30624 452.06384 401.56925 445.24023 367.45117 L 449.33398 366.42773 L 449.33398 320.36914 C 449.33398 251.45064 440.466 202.32008 422.72461 172.97852 C 418.43359 166.16339 412.62652 160.67147 405.34766 156.4707 L 407.37109 146.36719 L 411.46484 146.36719 C 414.87664 143.63774 414.87664 140.90718 411.46484 138.17773 L 402.25195 138.17773 C 428.4235 127.70027 437.1433 105.73195 443.19336 79.835938 C 447.96984 58.00036 454.62282 40.772137 463.15234 28.148438 C 471.68187 15.524769 477.31158 6.141265 480.04102 0 C 473.21741 2.7294473 463.83586 10.576147 451.89453 23.541016 C 441.49075 34.836508 431.99131 56.232959 423.40039 87.728516 C 423.63011 85.525256 423.74609 83.234933 423.74609 80.859375 C 423.74609 56.87238 408.86478 19.447266 361.31055 19.447266 C 312.32962 19.447266 299.89844 59.061543 299.89844 80.859375 C 299.89844 83.75862 300.06799 86.53122 300.41016 89.173828 C 291.18271 56.887088 281.28859 35.008359 270.72656 23.541016 C 258.78526 10.576147 249.40175 2.7294473 242.57812 0 z M 361.31055 32.753906 C 396.02385 32.753906 409.41797 58.745184 409.41797 79.835938 C 409.41797 107.92845 388.15352 126.91992 361.31055 126.91992 C 335.6829 126.91992 313.20312 109.74723 313.20312 79.835938 C 313.20312 58.744036 326.5982 32.753906 361.31055 32.753906 z M 335.4668 161.7207 L 378.06055 161.7207 C 392.86359 164.6716 403.99957 170.81099 411.46484 180.14258 C 429.20621 208.80173 438.07422 255.54479 438.07422 320.36914 L 438.07422 356.19141 L 376.66406 356.19141 L 376.66406 246.67383 C 384.17005 236.4384 387.92383 227.56848 387.92383 220.0625 C 387.92383 201.63874 382.12356 192.42578 370.52344 192.42578 C 361.65274 192.42578 357.2168 196.17758 357.2168 203.68359 C 353.12264 204.36593 349.02778 201.12575 344.93359 193.96094 C 340.83944 186.79623 328.21571 184.2361 307.0625 186.2832 C 311.00733 173.4625 320.47551 165.2766 335.4668 161.7207 z M 321.63477 195.85156 C 330.53515 195.99525 336.7744 198.06512 339.30273 202.66211 C 343.05573 209.48571 351.416 215.28597 364.38086 220.0625 C 364.38086 209.14476 366.42923 203.68359 370.52344 203.68359 C 374.61757 203.68359 376.66406 209.14474 376.66406 220.0625 C 376.66406 226.88611 372.91028 235.41495 365.4043 245.65039 L 365.4043 298.875 L 349.02734 298.875 C 342.20373 293.41613 336.06242 282.49778 330.60352 266.12109 C 325.14463 265.43874 318.83278 265.77978 311.66797 267.14453 C 304.50319 268.50922 300.23975 267.48602 298.875 264.07422 C 297.51029 260.66241 300.06834 258.10436 306.55078 256.39844 C 313.0332 254.69253 310.13406 252.4736 297.85156 249.74414 L 296.82617 251.79102 C 296.82618 251.79106 296.48704 250.42671 295.80469 247.69727 C 297.16944 244.96785 297.33797 242.75085 296.31445 241.04492 C 295.29091 239.33895 292.73287 239.1665 288.63867 240.53125 L 298.875 214.94336 C 307.06334 206.75502 321.73349 206.07285 342.88672 212.89648 L 342.88672 209.82422 C 321.05113 202.31822 307.0631 200.95393 300.92188 205.73047 L 302.96875 197.54297 C 309.99731 196.37153 316.29453 195.76535 321.63477 195.85156 z M 314.03516 211.71289 C 313.39545 211.73429 312.77675 211.78774 312.17969 211.87305 C 307.40316 212.55542 303.65132 215.28595 300.92188 220.0625 L 297.85156 221.08398 L 297.85156 225.17773 L 301.94531 225.17773 C 302.62766 225.17773 303.99197 225.52077 306.03906 226.20312 C 306.84692 226.4724 315.61165 229.05758 330.60352 220.0625 L 342.88672 220.0625 L 342.88672 215.96875 L 330.60352 215.96875 C 324.03579 212.98344 318.51317 211.56364 314.03516 211.71289 z M 316.27539 214.94336 C 317.64025 214.94345 321.39222 215.96863 327.5332 218.01562 C 324.38522 219.58962 316.8018 223.17925 313.23047 223.125 C 320.10626 221.38886 316.42372 215.0938 316.27539 214.94336 z M 310.13281 215.96875 C 308.75933 217.34275 307.96374 222.7989 312.70898 223.11523 C 309.20121 223.04063 305.95408 222.70642 302.96875 222.10938 C 304.3335 221.42696 305.35672 220.40187 306.03906 219.03711 C 306.72147 217.67242 308.0857 216.65109 310.13281 215.96875 z M 302.96875 313.20312 L 365.4043 313.20312 L 365.4043 367.45117 L 409.41797 367.45117 L 399.17969 394.06445 L 325.48633 394.06445 C 315.93323 394.06445 311.49735 390.99279 312.17969 384.85156 C 327.19163 354.82767 324.12195 330.94454 302.96875 313.20312 z M 327.5332 401.22852 L 397.13281 401.22852 L 396.11133 404.29883 L 328.55664 404.29883 L 327.5332 401.22852 z M 339.81641 415.55859 L 386.89844 415.55859 C 385.53373 444.90014 388.94447 470.14756 397.13281 491.30078 C 405.32111 512.45401 406.51686 533.43605 400.7168 554.24805 C 394.91673 575.06005 391.67455 598.77069 390.99219 625.38281 C 390.30985 651.99486 389.28858 677.58537 387.92383 702.15039 C 393.38272 751.28042 390.99323 818.49198 380.75781 903.78711 L 323.43945 903.78711 C 335.03958 803.48001 336.74495 730.97981 328.55664 686.28516 C 320.36832 641.5905 316.27539 614.80622 316.27539 605.93555 C 317.6401 562.94681 325.48679 499.48908 339.81641 415.55859 z M 487.69727 649.83203 L 487.64453 650.2207 C 493.20787 651.23793 489.33703 669.0074 472.81445 697.09961 C 458.53837 675.68037 453.32744 660.60594 453.08594 655.46289 C 454.46499 654.72034 455.33239 653.90608 455.68945 653.01953 C 459.59902 658.59703 463.31007 656.50899 466.99805 653.5332 C 469.9598 655.9202 472.36504 656.09024 474.21289 654.04297 C 476.06082 651.99681 478.05835 651.48418 480.20508 652.50781 C 482.35178 653.53145 484.82785 652.67872 487.63281 649.94922 L 487.69727 649.83203 z M 340.83984 917.09375 L 361.31055 917.09375 C 368.61721 944.85916 353.68869 962.17049 329.58008 967.24609 C 327.53299 956.32831 331.28679 939.61166 340.83984 917.09375 z " />
</svg>
